public/img/streams-format-2.svg

<svg width="134" height="134" viewBox="0 0 134 134" fill="none" xmlns="http://www.w3.org/2000/svg">
<g clip-path="url(#clip0)">
<path d="M37.9063 134C33.4837 134 29.3172 132.421 26.1739 129.553C22.8187 126.492 20.9707 122.236 20.9707 117.571C20.9707 115.407 22.7247 113.653 24.8884 113.653C27.052 113.653 28.806 115.407 28.806 117.571C28.806 123.153 33.4945 126.165 37.906 126.165C41.5439 126.165 44.9735 124.315 47.5626 120.958C51.0453 116.441 52.8863 109.423 52.8863 100.661V27.5524C52.8863 19.296 54.8764 12.3181 58.6415 7.37236C62.2613 2.61823 67.2635 0 72.7269 0C82.9329 0 93.2645 9.46427 93.2645 27.5524V40.6104C93.2645 42.774 91.5104 44.528 89.3468 44.528C87.1832 44.528 85.4292 42.774 85.4292 40.6104V27.5524C85.4292 14.6081 79.0393 7.8356 72.7269 7.8356C69.7671 7.8356 66.9788 9.35671 64.8759 12.1189C62.9808 14.6081 60.7216 19.3062 60.7216 27.5524V100.661C60.7216 111.32 58.3818 119.758 53.7677 125.742C49.721 130.99 43.9397 134 37.9063 134Z" fill="#2D2D2D"/>
<path d="M13.1062 111.175L11.451 99.2084C11.2958 98.0864 11.6337 96.9521 12.3778 96.0981C13.1219 95.2441 14.1991 94.7539 15.3318 94.7539H34.6121C35.7448 94.7539 36.8221 95.2441 37.5661 96.0981C38.3102 96.9521 38.6481 98.0864 38.4929 99.2084L36.8378 111.175C36.0246 117.054 30.9355 121.488 25 121.488H24.944C19.0084 121.488 13.9193 117.054 13.1062 111.175Z" fill="#5A5A5A"/>
<path d="M37.5668 96.0981C38.3109 96.9521 38.6488 98.0864 38.4936 99.2084L36.8385 111.175C36.0253 117.054 30.9362 121.488 25.0007 121.488H24.9727V94.7539H34.6128C35.7455 94.7539 36.8225 95.2441 37.5668 96.0981Z" fill="#464646"/>
<path d="M11.3513 99.019L7.76309 58.6251L10.7325 55.4845L7.06561 50.7735L5.65625 34.9087C5.46467 32.7534 7.05671 30.8512 9.21196 30.6597C11.2254 30.4809 38.6394 30.4804 40.6554 30.6597C42.8106 30.8512 44.4027 32.7537 44.2111 34.9087C44.2111 34.9108 44.2108 34.9131 44.2106 34.9152L42.7894 50.9148L38.7875 54.5632L42.0933 58.7502L38.5161 99.0188H11.3513V99.019Z" fill="#7C83E7"/>
<path d="M40.6543 30.6597C42.8096 30.8512 44.4016 32.7537 44.21 34.9087C44.21 34.9108 44.2098 34.9131 44.2095 34.9152L42.7884 50.9148L38.7864 54.5632L42.0922 58.7502L38.515 99.0188H24.9727V30.5254C32.316 30.5254 39.6483 30.5701 40.6543 30.6597Z" fill="#5F69E2"/>
<path d="M120.912 44.7561C118.748 44.7561 116.994 43.0021 116.994 40.8385V34.5622C116.994 32.3986 118.748 30.6445 120.912 30.6445C123.075 30.6445 124.829 32.3986 124.829 34.5622V40.8385C124.829 43.0021 123.075 44.7561 120.912 44.7561Z" fill="#2D2D2D"/>
<path d="M109.943 44.7561C107.779 44.7561 106.025 43.0021 106.025 40.8385V34.5622C106.025 32.3986 107.779 30.6445 109.943 30.6445C112.107 30.6445 113.861 32.3986 113.861 34.5622V40.8385C113.861 43.0021 112.107 44.7561 109.943 44.7561Z" fill="#2D2D2D"/>
<path d="M76.1816 125.802V42.7282C76.1816 40.5646 77.9357 38.8105 80.0993 38.8105H129.847C132.01 38.8105 133.764 40.5646 133.764 42.7282V125.802C133.764 127.966 132.01 129.72 129.847 129.72H80.0993C77.9357 129.72 76.1816 127.966 76.1816 125.802Z" fill="#7C83E7"/>
<path d="M88.6016 68.5386C88.6016 59.5106 95.9464 52.166 104.974 52.166C114.002 52.166 121.347 59.5106 121.347 68.5386C121.347 77.5666 114.002 84.9115 104.974 84.9115C95.9464 84.9115 88.6016 77.5666 88.6016 68.5386Z" fill="#FFCC00"/>
<path d="M88.6016 102.93C88.6016 93.9015 95.9464 86.5566 104.974 86.5566C114.002 86.5566 121.347 93.9015 121.347 102.93C121.347 111.958 114.002 119.302 104.974 119.302C95.9464 119.302 88.6016 111.958 88.6016 102.93Z" fill="#FFCC00"/>
<path d="M104.973 52.166C114.001 52.166 121.345 59.5106 121.345 68.5386C121.345 77.5666 114.001 84.9115 104.973 84.9115V52.166Z" fill="#FF9E22"/>
<path d="M104.973 86.5586C114.001 86.5586 121.345 93.9035 121.345 102.931C121.345 111.959 114.001 119.304 104.973 119.304V86.5586Z" fill="#FF9E22"/>
<path d="M24.9333 72.4545C27.097 72.4545 28.851 70.7005 28.851 68.5368C28.851 66.3731 27.097 64.6191 24.9333 64.6191C22.7696 64.6191 21.0156 66.3731 21.0156 68.5368C21.0156 70.7005 22.7696 72.4545 24.9333 72.4545Z" fill="#EFEFEF"/>
<path d="M28.8505 68.5367C28.8505 70.687 27.1177 72.4308 24.9727 72.4525V64.6211C27.118 64.6426 28.8505 66.3864 28.8505 68.5367Z" fill="#E5E5E5"/>
<path d="M2.1875 23.9003C2.1875 11.3582 12.3914 1.1543 24.9335 1.1543C37.4756 1.1543 47.6795 11.3582 47.6795 23.9003C47.6795 36.4424 37.4756 46.6463 24.9335 46.6463C12.3914 46.6463 2.1875 36.4424 2.1875 23.9003Z" fill="#EFEFEF"/>
<path d="M47.6786 23.8998C47.6786 36.4285 37.4964 46.6235 24.9727 46.6452V1.1543C37.4964 1.17602 47.6786 11.371 47.6786 23.8998Z" fill="#E5E5E5"/>
<path d="M104.973 60C109.68 60 113.51 63.8297 113.51 68.5373C113.51 73.2448 109.68 77.0745 104.973 77.0745C100.265 77.0745 96.4355 73.2448 96.4355 68.5373C96.4355 63.83 100.266 60 104.973 60Z" fill="#464646"/>
<path d="M104.973 60C109.68 60 113.51 63.8297 113.51 68.5373C113.51 73.2448 109.68 77.0745 104.973 77.0745V60Z" fill="#2D2D2D"/>
<path d="M104.972 72.4545C107.136 72.4545 108.89 70.7005 108.89 68.5368C108.89 66.3731 107.136 64.6191 104.972 64.6191C102.809 64.6191 101.055 66.3731 101.055 68.5368C101.055 70.7005 102.809 72.4545 104.972 72.4545Z" fill="#FFCC00"/>
<path d="M108.89 68.5368C108.89 70.7005 107.136 72.4545 104.973 72.4545V64.6191C107.137 64.6191 108.89 66.3732 108.89 68.5368Z" fill="#FF9E22"/>
<path d="M104.973 94.3926C109.68 94.3926 113.51 98.2223 113.51 102.93C113.51 107.637 109.68 111.467 104.973 111.467C100.265 111.467 96.4355 107.637 96.4355 102.93C96.4355 98.2223 100.266 94.3926 104.973 94.3926Z" fill="#464646"/>
<path d="M104.973 94.3926C109.68 94.3926 113.51 98.2223 113.51 102.93C113.51 107.637 109.68 111.467 104.973 111.467V94.3926Z" fill="#2D2D2D"/>
<path d="M104.972 106.847C107.136 106.847 108.89 105.093 108.89 102.929C108.89 100.766 107.136 99.0117 104.972 99.0117C102.809 99.0117 101.055 100.766 101.055 102.929C101.055 105.093 102.809 106.847 104.972 106.847Z" fill="#FFCC00"/>
<path d="M108.89 102.929C108.89 105.093 107.136 106.847 104.973 106.847V99.0117C107.137 99.0117 108.89 100.766 108.89 102.929Z" fill="#FF9E22"/>
<path d="M4.15595 27.8178H45.9451C48.1087 27.8178 49.8628 26.0637 49.8628 23.9001C49.8628 21.7365 48.1087 19.9824 45.9451 19.9824H4.15595C1.99232 19.9824 0.238281 21.7365 0.238281 23.9001C0.238281 26.0637 1.99232 27.8178 4.15595 27.8178Z" fill="#5A5A5A"/>
<path d="M45.9447 19.9824C48.1083 19.9824 49.8624 21.7365 49.8624 23.9001C49.8624 26.0637 48.1083 27.8178 45.9447 27.8178H24.9727V19.9824H45.9447Z" fill="#464646"/>
<path d="M42.7874 50.916L42.0913 58.7516H7.77234L7.07617 50.916H42.7874Z" fill="#5A5A5A"/>
<path d="M42.0922 58.7516H24.9727V50.916H42.7884L42.0922 58.7516Z" fill="#464646"/>
</g>
<defs>
<clipPath id="clip0">
<rect width="134" height="134" fill="white"/>
</clipPath>
</defs>
</svg>

<svg width="134" height="134" fill="none" xmlns="http://www.w3.org/2000/svg"><g clip-path="url(#clip0)"><path d="M37.906 134c-4.422 0-8.589-1.579-11.732-4.447-3.355-3.061-5.203-7.317-5.203-11.982a3.918 3.918 0 117.835 0c0 5.582 4.689 8.594 9.1 8.594 3.638 0 7.068-1.85 9.657-5.207 3.482-4.517 5.323-11.535 5.323-20.297V27.552c0-8.256 1.99-15.234 5.755-20.18C62.261 2.618 67.263 0 72.728 0c10.206 0 20.537 9.464 20.537 27.552V40.61a3.918 3.918 0 01-7.835 0V27.552c0-12.944-6.39-19.716-12.702-19.716-2.96 0-5.748 1.52-7.851 4.283-1.895 2.49-4.154 7.187-4.154 15.433v73.109c0 10.659-2.34 19.097-6.954 25.081C49.72 130.99 43.94 134 37.906 134z" fill="#2D2D2D"/><path d="M13.106 111.175l-1.655-11.967a3.917 3.917 0 013.88-4.454h19.281a3.918 3.918 0 013.88 4.454l-1.654 11.967c-.813 5.879-5.902 10.313-11.838 10.313h-.056c-5.936 0-11.025-4.434-11.838-10.313z" fill="#5A5A5A"/><path d="M37.567 96.098a3.917 3.917 0 01.927 3.11l-1.655 11.967c-.814 5.879-5.903 10.313-11.838 10.313h-.028V94.754h9.64c1.133 0 2.21.49 2.954 1.344z" fill="#464646"/><path d="M11.351 99.019L7.763 58.625l2.97-3.14-3.667-4.712-1.41-15.864a3.918 3.918 0 013.556-4.25c2.013-.178 29.427-.179 31.443 0a3.918 3.918 0 013.556 4.25v.006l-1.422 16-4.002 3.648 3.306 4.187-3.577 40.269H11.351z" fill="#7C83E7"/><path d="M40.654 30.66a3.918 3.918 0 013.555 4.255l-1.42 16-4.003 3.648 3.306 4.187-3.577 40.269H24.973V30.525c7.343 0 14.675.045 15.681.135z" fill="#5F69E2"/><path d="M120.912 44.756a3.918 3.918 0 01-3.918-3.917v-6.277a3.918 3.918 0 017.835 0v6.277a3.918 3.918 0 01-3.917 3.917zm-10.969 0a3.918 3.918 0 01-3.918-3.917v-6.277a3.918 3.918 0 017.836 0v6.277a3.918 3.918 0 01-3.918 3.917z" fill="#2D2D2D"/><path d="M76.182 125.802V42.728a3.918 3.918 0 013.917-3.918h49.748a3.918 3.918 0 013.917 3.918v83.074a3.918 3.918 0 01-3.917 3.918H80.099a3.918 3.918 0 01-3.917-3.918z" fill="#7C83E7"/><path d="M88.602 68.539c0-9.028 7.344-16.373 16.372-16.373 9.028 0 16.373 7.345 16.373 16.373 0 9.028-7.345 16.373-16.373 16.373-9.028 0-16.372-7.345-16.372-16.373zm0 34.391c0-9.029 7.344-16.373 16.372-16.373 9.028 0 16.373 7.344 16.373 16.373 0 9.028-7.345 16.372-16.373 16.372-9.028 0-16.372-7.344-16.372-16.372z" fill="#FC0"/><path d="M104.973 52.166c9.028 0 16.372 7.345 16.372 16.373 0 9.028-7.344 16.373-16.372 16.373V52.166zm0 34.393c9.028 0 16.372 7.344 16.372 16.372 0 9.028-7.344 16.373-16.372 16.373V86.559z" fill="#FF9E22"/><path d="M24.933 72.454a3.918 3.918 0 100-7.835 3.918 3.918 0 000 7.835z" fill="#EFEFEF"/><path d="M28.85 68.537a3.917 3.917 0 01-3.877 3.915v-7.83a3.916 3.916 0 013.878 3.915z" fill="#E5E5E5"/><path d="M2.188 23.9c0-12.542 10.203-22.746 22.745-22.746 12.543 0 22.746 10.204 22.746 22.746 0 12.542-10.203 22.746-22.746 22.746-12.542 0-22.745-10.204-22.745-22.746z" fill="#EFEFEF"/><path d="M47.679 23.9c0 12.529-10.183 22.724-22.706 22.745V1.155c12.523.02 22.706 10.215 22.706 22.745z" fill="#E5E5E5"/><path d="M104.973 60c4.707 0 8.537 3.83 8.537 8.537 0 4.708-3.83 8.537-8.537 8.537-4.708 0-8.537-3.83-8.537-8.537 0-4.707 3.83-8.537 8.537-8.537z" fill="#464646"/><path d="M104.973 60c4.707 0 8.537 3.83 8.537 8.537 0 4.708-3.83 8.537-8.537 8.537V60z" fill="#2D2D2D"/><path d="M104.972 72.454a3.918 3.918 0 100-7.835 3.918 3.918 0 000 7.835z" fill="#FC0"/><path d="M108.89 68.537a3.918 3.918 0 01-3.917 3.917V64.62a3.917 3.917 0 013.917 3.918z" fill="#FF9E22"/><path d="M104.973 94.393c4.707 0 8.537 3.83 8.537 8.537 0 4.707-3.83 8.537-8.537 8.537-4.708 0-8.537-3.83-8.537-8.537 0-4.708 3.83-8.537 8.537-8.537z" fill="#464646"/><path d="M104.973 94.393c4.707 0 8.537 3.83 8.537 8.537 0 4.707-3.83 8.537-8.537 8.537V94.393z" fill="#2D2D2D"/><path d="M104.972 106.847a3.918 3.918 0 100-7.836 3.918 3.918 0 000 7.836z" fill="#FC0"/><path d="M108.89 102.929a3.918 3.918 0 01-3.917 3.918v-7.835a3.917 3.917 0 013.917 3.917z" fill="#FF9E22"/><path d="M4.156 27.818h41.79a3.918 3.918 0 000-7.836H4.155a3.918 3.918 0 000 7.836z" fill="#5A5A5A"/><path d="M45.945 19.982a3.918 3.918 0 010 7.836H24.973v-7.836h20.972z" fill="#464646"/><path d="M42.787 50.916l-.696 7.836H7.772l-.696-7.836h35.711z" fill="#5A5A5A"/><path d="M42.092 58.752h-17.12v-7.836h17.816l-.696 7.836z" fill="#464646"/></g><defs><clipPath id="clip0"><path fill="#fff" d="M0 0h134v134H0z"/></clipPath></defs></svg>
